X:266
%%etbk:tnset id:80,pos:3,rep:3x,ant:
%%etbk:wsite http://www.thesession.org/tunes/display/829
%%etbk:pldat 2016-03-17T18:05,2016-01-27T17:51,2015-12-31T13:21,2015-12-29T17:35,2015-02-04T17:07,2015-01-18T11:43,2014-12-17T18:18,2014-09-11T18:22,2014-05-19T18:33,2014-05-11T12:48,2014-04-30T17:07,2014-03-19T19:32,2014-02-14T16:17,2014-02-05T15:16,2013-08-28T17:14,2013-05-21T16:54
T: Hag At The Churn, The
Z: Piano Box Version by Martin Fleischmann
H: Created 2013-02-19 /  Last Modified 2013-02-19
M: 6/8
L: 1/8
R: jig
K: Dmix
|: "D"!3!A2G !3!A!1!DD | !3!AAG !3!A!5!d!4!c | !3!A2G !3!A!1!DD | "A"!2!EFG EF!4!G:|
"D"!2!A!5!d!3!B !4!c3 | !1!A!3!dd !4!e!3!f!4!g | !1!A!4!dB !3! c2!1!2A | "A"!3!G!1!E!3!F !4!GE!1!D |
"D"!2!A!5!d!3!B !4!c3 | !1!A!3!d!1!d !2!e!3!f!4!g | !5!age !1!d!3!c!1!A | "A"!3!G!1!E!3!F !4!GE!1!D||


